!!!OTL-incipit: ICH HAB ZU DIR GESAGT, MEIN KIND ICH LIEBE DICH
!!!ARE: Europa, Mitteleuropa, Deutschland, Sued - Deutschland, Bayern
!!!SCT: Z0271
!!!TXL: @@DE
!!!YEM: Copyright 1995, estate of Helmut Schaffrath.
**kern	**text
*ICvox	*
*M2/4	*
*k[f#c#g#]	*
*A:	*
!LO:TX:a:t=Süddeutſch. Baieriſch.	!
{8e	Jch
=1	=1
8a	hab'
8b/	ʒu
8cc#	dir
8dd	ge-
=2	=2
(4cc#	-ſagt,
16ddqqL	.
16cc#qqJ	.
8b)}	.
{8cc#	mein
=3	=3
8dd	Kind,
8cc#	ich
8dd	lie-
8ee	-be
=4	=4
(4dd	dich,
8cc#)}	.
{8e	und
=5	=5
8a	biſt
8b/	du
8cc#	mir
8dd	ge-
=6	=6
(4cc#	-neigt,
8b)}	.
{8cc#	ſo
=7	=7
8dd	den-
8b	-ke
8a	oft
8g#	an
=8	=8
4a	mich.
8r}	.
=:|	=:|
{8cc#	Und
=9	=9
8ee	ſo
8dd	du
8cc#	den-
8dd	-ken
=10	=10
(4ee	willſt,
8dd)}	.
{8cc#	ſo
=11	=11
8dd	ſtell
8ee	es
8ff#	al-
8dd	-ſo
=12	=12
(4dd	an,
8cc#)}	.
{8e	daß
=13	=13
8a	Niemand
8b/	.
8cc#	au-
8dd	-ßer
=14	=14
(4cc#	uns
8b)}	.
{8cc#	die
=15	=15
8dd	Lie-
8b	-be
8a	merken
8g#	.
=16	=16
4a	kann.
8r}	.
==	==
!!!AGN: Lyrisches Lied, Romanze
!!!ONB: ESAC (Essen Associative Code) Database: ZUCCAL
!!!AMT: simple duple
!!!AIN: vox
!!!EED: Helmut Schaffrath
!!!EEV: 1.0
!!!GTL: IV. Lyrische Lieder.
!!!URL-scan: https://www.digitale-sammlungen.de/de/view/bsb11160571?page=493
!!!ENC: Anna Maria Matuszewska
!!!EEV: 2025/01/30
*-	*-
